public/formular-icons/english/lower-a.svg

<svg style="vertical-align:-.023ex" xmlns="http://www.w3.org/2000/svg" width="1.197ex" height="1.02ex" viewBox="0 -441 529 451" xmlns:xlink="http://www.w3.org/1999/xlink"><defs><path id="a" d="M33 157q0 101 76 192t171 92q51 0 90-49 16 30 46 30 13 0 23-8t10-20q0-13-37-160T374 68q0-25 7-33t21-9q9 1 20 9 21 20 41 96 6 20 10 21 2 1 10 1h4q19 0 19-9 0-6-5-27t-20-54-32-50Q436 0 417-8q-8-2-24-2-34 0-57 15t-30 31l-6 15q-1 1-4-1l-4-4q-59-56-120-56-55 0-97 40T33 157Zm318 171q0 6-5 22t-23 35-46 20q-35 0-67-31t-50-81q-29-79-41-164v-11q0-8-1-12 0-45 18-62t43-18q38 0 75 33t44 51q2 4 27 107t26 111Z"/></defs><g stroke="currentColor" fill="currentColor" stroke-width="0"><use data-c="1D44E" xlink:href="#a" transform="scale(1 -1)"/></g></svg>

<svg style="vertical-align: -0.023ex" xmlns="http://www.w3.org/2000/svg" width="1.197ex" height="1.02ex" role="img" focusable="false" viewBox="0 -441 529 451" xmlns:xlink="http://www.w3.org/1999/xlink"><defs><path id="MJX-33-TEX-I-1D44E" d="M33 157Q33 258 109 349T280 441Q331 441 370 392Q386 422 416 422Q429 422 439 414T449 394Q449 381 412 234T374 68Q374 43 381 35T402 26Q411 27 422 35Q443 55 463 131Q469 151 473 152Q475 153 483 153H487Q506 153 506 144Q506 138 501 117T481 63T449 13Q436 0 417 -8Q409 -10 393 -10Q359 -10 336 5T306 36L300 51Q299 52 296 50Q294 48 292 46Q233 -10 172 -10Q117 -10 75 30T33 157ZM351 328Q351 334 346 350T323 385T277 405Q242 405 210 374T160 293Q131 214 119 129Q119 126 119 118T118 106Q118 61 136 44T179 26Q217 26 254 59T298 110Q300 114 325 217T351 328Z"></path></defs><g stroke="currentColor" fill="currentColor" stroke-width="0" transform="scale(1,-1)"><g data-mml-node="math"><g data-mml-node="mi"><use data-c="1D44E" xlink:href="#MJX-33-TEX-I-1D44E"></use></g></g></g></svg>
